Numix-GalliumOS/16/emblems/emblem-important.svg

<?xml version="1.0" encoding="UTF-8" standalone="no"?>
<svg
   xmlns:dc="http://purl.org/dc/elements/1.1/"
   xmlns:cc="http://creativecommons.org/ns#"
   xmlns:rdf="http://www.w3.org/1999/02/22-rdf-syntax-ns#"
   xmlns:svg="http://www.w3.org/2000/svg"
   xmlns="http://www.w3.org/2000/svg"
   xmlns:sodipodi="http://sodipodi.sourceforge.net/DTD/sodipodi-0.dtd"
   xmlns:inkscape="http://www.inkscape.org/namespaces/inkscape"
   width="16"
   height="16"
   viewBox="0 0 16 16"
   id="svg2"
   version="1.1"
   inkscape:version="0.91 r13725"
   sodipodi:docname="emblem-important.svg">
  <metadata
     id="metadata12">
    <rdf:RDF>
      <cc:Work
         rdf:about="">
        <dc:format>image/svg+xml</dc:format>
        <dc:type
           rdf:resource="http://purl.org/dc/dcmitype/StillImage" />
      </cc:Work>
    </rdf:RDF>
  </metadata>
  <defs
     id="defs10" />
  <sodipodi:namedview
     pagecolor="#ffffff"
     bordercolor="#666666"
     borderopacity="1"
     objecttolerance="10"
     gridtolerance="10"
     guidetolerance="10"
     inkscape:pageopacity="0"
     inkscape:pageshadow="2"
     inkscape:window-width="1366"
     inkscape:window-height="704"
     id="namedview8"
     showgrid="false"
     inkscape:zoom="1"
     inkscape:cx="4.3258687"
     inkscape:cy="4.4644661"
     inkscape:window-x="0"
     inkscape:window-y="27"
     inkscape:window-maximized="1"
     inkscape:current-layer="svg2">
    <inkscape:grid
       type="xygrid"
       id="grid4140" />
  </sodipodi:namedview>
  <path
     style="fill:#fff;stroke:#777;stroke-width:.5"
     d="M 25.932953 35.186401 C 25.932953 42.095309 20.446393 47.695712 13.677926 47.695712 C 6.90946 47.695712 1.4229 42.095309 1.4229 35.186401 C 1.4229 28.277492 6.90946 22.677089 13.677926 22.677089 C 20.446393 22.677089 25.932953 28.277492 25.932953 35.186401 Z "
     transform="matrix(.53326 0 0 .52242 .70606 -10.3822)"
     id="path4" />
  <path
     style="fill:#dc322f"
     d="M 7.5,3 C 7.222656,3 7,3.222656 7,3.5 l 0,5 C 7,8.777344 7.222656,9 7.5,9 l 1,0 C 8.777344,9 9,8.777344 9,8.5 l 0,-5 C 9,3.222656 8.765625,3.085938 8.5,3 Z m 0,8 C 7.222656,11 7,11.222657 7,11.5 l 0,1 c 0,0.277344 0.234375,0.414062 0.5,0.5 l 1,0 C 8.777344,13 9,12.777344 9,12.5 l 0,-1 C 9,11.222657 8.777344,11 8.5,11 Z"
     id="path6"
     inkscape:connector-curvature="0"
     sodipodi:nodetypes="ssssssscsssscsssss" />
</svg>

<svg xmlns="http://www.w3.org/2000/svg" viewBox="0 0 16 16">
 <path d="m 25.933 35.19 c 0 6.909 -5.487 12.509 -12.255 12.509 c -6.768 0 -12.255 -5.6 -12.255 -12.509 c 0 -6.909 5.487 -12.509 12.255 -12.509 c 6.768 0 12.255 5.6 12.255 12.509 Z" transform="matrix(.53326 0 0 .52242 .70606 -10.3822)" style="fill:#fff;stroke:#777;stroke-width:0.5"/>
 <path d="m 7.5 3 c -0.277 0 -0.5 0.223 -0.5 0.5 l 0 5 c 0 0.277 0.223 0.5 0.5 0.5 l 1 0 c 0.277 0 0.5 -0.223 0.5 -0.5 l 0 -5 c 0 -0.277 -0.234 -0.414 -0.5 -0.5 m -1 8 c -0.277 0 -0.5 0.223 -0.5 0.5 l 0 1 c 0 0.277 0.234 0.414 0.5 0.5 l 1 0 c 0.277 0 0.5 -0.223 0.5 -0.5 l 0 -1 c 0 -0.277 -0.223 -0.5 -0.5 -0.5" style="fill:#dc322f"/>
</svg>
